;FLAVOR:Marlin
;TIME:1373
;Filament used: 0.790753m
;Layer height: 0.2
;MINX:131.284
;MINY:121.986
;MINZ:0.2
;MAXX:168.68
;MAXY:178.014
;MAXZ:3
;Generated with Cura_SteamEngine 5.3.0
M140 S60
M105
M190 S60
M104 S210
M105
M109 S210
M82 ;absolute extrusion mode
M220 S100 ;Reset Feedrate
M221 S100 ;Reset Flowrate

M280 P0 S160 ;reset bltouch
G28 ;Home
G29 A ; enable UBL
G92 E0 ;Reset Extruder
G1 Z2.0 F3000 ;Move Z Axis up
G1 X10.1 Y20 Z0.28 F5000.0 ;Move to start position
G1 X10.1 Y200.0 Z0.28 F1500.0 E15 ;Draw the first line
G1 X10.4 Y200.0 Z0.28 F5000.0 ;Move to side a little
G1 X10.4 Y20 Z0.28 F1500.0 E30 ;Draw the second line
G92 E0 ;Reset Extruder
G1 Z2.0 F3000 ;Move Z Axis up
G92 E0
G92 E0
G1 F2100 E-1.5
;LAYER_COUNT:15
;LAYER:0
M107
G0 F6000 X134.312 Y124.97 Z0.2
;TYPE:SKIRT
G1 F2100 E0
G1 F1200 X135.658 Y123.724 E0.06101
G1 X137.618 Y122.758 E0.13368
G1 X139.066 Y122.213 E0.18514
G1 X140.34 Y122.024 E0.22798
G1 X147.548 Y121.986 E0.46772
G1 X148.986 Y122.146 E0.51584
G1 X149.98 Y122.493 E0.55086
G1 X150.725 Y122.213 E0.57733
G1 X151.99 Y122.024 E0.61987
G1 X159.202 Y121.986 E0.85975
G1 X160.606 Y122.143 E0.90674
G1 X162.893 Y122.946 E0.98736
G1 X164.891 Y124.221 E1.06619
G1 X166.457 Y125.787 E1.13985
G1 X167.368 Y127.266 E1.19762
G1 X168.071 Y128.796 E1.25362
G1 X168.516 Y130.176 E1.30185
G1 X168.638 Y131.343 E1.34088
G1 X168.68 Y161.418 E2.34118
G1 X168.581 Y161.824 E2.35508
G1 X168.68 Y162.34 E2.37255
G1 X168.638 Y168.64 E2.58209
G1 X168.513 Y169.85 E2.62255
G1 X168.04 Y171.283 E2.67274
G1 X167.572 Y172.349 E2.71147
G1 X166.807 Y173.631 E2.76112
G1 X166.152 Y174.472 E2.79658
G1 X165.284 Y175.353 E2.83771
G1 X163.632 Y176.614 E2.90683
G1 X162.223 Y177.29 E2.95881
G1 X160.873 Y177.789 E3.00668
G1 X159.607 Y177.976 E3.04925
G1 X152.402 Y178.014 E3.28889
G1 X150.968 Y177.854 E3.33688
G1 X149.982 Y177.509 E3.37162
G1 X149.222 Y177.789 E3.39856
G1 X147.957 Y177.976 E3.44109
G1 X140.748 Y178.014 E3.68087
G1 X139.344 Y177.857 E3.72786
G1 X137.057 Y177.054 E3.80848
G1 X135.059 Y175.779 E3.88731
G1 X133.494 Y174.214 E3.96092
G1 X132.659 Y172.877 E4.01335
G1 X131.967 Y171.427 E4.06679
G1 X131.438 Y169.836 E4.12255
G1 X131.312 Y168.668 E4.16163
G1 X131.284 Y131.768 E5.38893
G1 X131.421 Y130.165 E5.44244
G1 X131.969 Y128.579 E5.49825
G1 X132.777 Y126.926 E5.55944
G1 X133.221 Y126.254 E5.58623
G1 X134.312 Y124.97 E5.64227
G0 F6000 X134.584 Y125.264
G1 F1200 X135.888 Y124.057 E5.70137
G1 X137.795 Y123.117 E5.77208
G1 X139.164 Y122.603 E5.82072
G1 X140.399 Y122.42 E5.86225
G1 X147.504 Y122.384 E6.09856
G1 X148.897 Y122.539 E6.14518
G1 X149.984 Y122.918 E6.18347
G1 X150.823 Y122.603 E6.21327
G1 X152.049 Y122.42 E6.2545
G1 X159.158 Y122.384 E6.49095
G1 X160.519 Y122.536 E6.5365
G1 X162.717 Y123.308 E6.61398
G1 X164.637 Y124.533 E6.68973
G1 X166.14 Y126.036 E6.76043
G1 X167.027 Y127.476 E6.81668
G1 X167.69 Y128.919 E6.8695
G1 X168.123 Y130.26 E6.91637
G1 X168.24 Y131.384 E6.95396
G1 X168.28 Y161.369 E7.95126
G1 X168.172 Y161.814 E7.96649
G1 X168.28 Y162.377 E7.98556
G1 X168.24 Y168.599 E8.19251
G1 X168.12 Y169.765 E8.23149
G1 X167.66 Y171.157 E8.28026
G1 X167.206 Y172.188 E8.31772
G1 X166.491 Y173.385 E8.3641
G1 X165.836 Y174.226 E8.39955
G1 X165.041 Y175.035 E8.43728
G1 X163.422 Y176.271 E8.50502
G1 X162.05 Y176.929 E8.55563
G1 X160.776 Y177.399 E8.6008
G1 X159.549 Y177.58 E8.64205
G1 X152.446 Y177.616 E8.8783
G1 X151.057 Y177.461 E8.92479
G1 X149.98 Y177.084 E8.96274
G1 X149.126 Y177.399 E8.99301
G1 X147.899 Y177.58 E9.03426
G1 X140.792 Y177.616 E9.27065
G1 X139.431 Y177.464 E9.3162
G1 X137.233 Y176.692 E9.39368
G1 X135.313 Y175.467 E9.46943
G1 X133.808 Y173.962 E9.54022
G1 X133.02 Y172.704 E9.58959
G1 X132.347 Y171.301 E9.64135
G1 X131.831 Y169.75 E9.69571
G1 X131.71 Y168.625 E9.73335
G1 X131.683 Y131.802 E10.95809
G1 X131.816 Y130.247 E11.00999
G1 X132.347 Y128.71 E11.06408
G1 X133.111 Y127.147 E11.12194
G1 X133.555 Y126.475 E11.14873
G1 X134.584 Y125.264 E11.20159
G0 F6000 X134.856 Y125.558
G1 F1200 X136.118 Y124.39 E11.25878
G1 X137.936 Y123.492 E11.32622
G1 X139.266 Y122.993 E11.37347
G1 X140.458 Y122.816 E11.41355
G1 X147.46 Y122.782 E11.64644
G1 X148.808 Y122.932 E11.69155
G1 X149.988 Y123.344 E11.73312
G1 X150.921 Y122.993 E11.76628
G1 X152.108 Y122.816 E11.80619
G1 X159.113 Y122.782 E12.03918
G1 X160.434 Y122.93 E12.08339
G1 X162.54 Y123.669 E12.15763
G1 X164.383 Y124.845 E12.23034
G1 X165.823 Y126.285 E12.29807
G1 X166.686 Y127.686 E12.3528
G1 X167.309 Y129.042 E12.40244
G1 X167.729 Y130.344 E12.44794
G1 X167.842 Y131.426 E12.48412
G1 X167.88 Y161.321 E13.47843
G1 X167.763 Y161.804 E13.49496
G1 X167.88 Y162.414 E13.51562
G1 X167.842 Y168.558 E13.71998
G1 X167.727 Y169.68 E13.75749
G1 X167.28 Y171.031 E13.80482
G1 X166.84 Y172.026 E13.841
G1 X166.175 Y173.139 E13.88413
G1 X165.52 Y173.98 E13.91958
G1 X164.756 Y174.754 E13.95575
G1 X163.215 Y175.926 E14.02015
G1 X161.877 Y176.568 E14.06951
G1 X160.68 Y177.008 E14.11192
G1 X159.49 Y177.184 E14.15193
G1 X152.49 Y177.218 E14.38476
G1 X151.146 Y177.068 E14.42974
G1 X149.978 Y176.659 E14.4709
G1 X149.03 Y177.008 E14.5045
G1 X147.84 Y177.184 E14.54451
G1 X140.837 Y177.218 E14.77743
G1 X139.516 Y177.07 E14.82164
G1 X137.41 Y176.331 E14.89588
G1 X135.567 Y175.155 E14.96859
G1 X134.124 Y173.712 E15.03646
G1 X133.381 Y172.531 E15.08287
G1 X132.708 Y171.128 E15.13463
G1 X132.225 Y169.666 E15.18584
G1 X132.108 Y168.582 E15.2221
G1 X132.082 Y131.836 E16.44428
G1 X132.211 Y130.328 E16.49462
G1 X132.707 Y128.885 E16.54537
G1 X133.445 Y127.368 E16.60148
G1 X133.889 Y126.696 E16.62827
G1 X134.856 Y125.558 E16.67794
G0 F6000 X135.128 Y125.852
G1 F1200 X136.348 Y124.723 E16.73322
G1 X138.113 Y123.851 E16.7987
G1 X139.366 Y123.383 E16.84319
G1 X140.517 Y123.212 E16.88189
G1 X147.416 Y123.18 E17.11135
G1 X148.719 Y123.325 E17.15496
G1 X149.992 Y123.769 E17.1998
G1 X151.019 Y123.383 E17.23629
G1 X152.167 Y123.212 E17.2749
G1 X159.069 Y123.18 E17.50446
G1 X160.349 Y123.323 E17.5473
G1 X162.363 Y124.03 E17.61829
G1 X164.129 Y125.157 E17.68797
G1 X165.506 Y126.534 E17.75274
G1 X166.345 Y127.896 E17.80594
G1 X166.928 Y129.165 E17.85239
G1 X167.336 Y130.428 E17.89654
G1 X167.444 Y131.467 E17.93128
G1 X167.48 Y161.273 E18.92263
G1 X167.354 Y161.794 E18.94046
G1 X167.48 Y162.451 E18.96271
G1 X167.444 Y168.517 E19.16447
G1 X167.334 Y169.595 E19.20051
G1 X166.9 Y170.905 E19.24641
G1 X166.496 Y171.822 E19.27974
G1 X165.859 Y172.893 E19.32119
G1 X165.204 Y173.734 E19.35664
G1 X164.514 Y174.436 E19.38938
G1 X163.005 Y175.584 E19.45244
G1 X161.739 Y176.193 E19.49917
G1 X160.584 Y176.617 E19.54009
G1 X159.431 Y176.788 E19.57886
G1 X152.534 Y176.82 E19.80826
G1 X151.235 Y176.675 E19.85173
G1 X149.976 Y176.234 E19.8961
G1 X148.934 Y176.617 E19.93302
G1 X147.781 Y176.788 E19.97179
G1 X140.881 Y176.82 E20.20129
G1 X139.601 Y176.677 E20.24413
G1 X137.587 Y175.97 E20.31512
G1 X135.821 Y174.843 E20.3848
G1 X134.439 Y173.461 E20.4498
G1 X133.72 Y172.318 E20.49472
G1 X133.088 Y171.002 E20.54327
G1 X132.618 Y169.581 E20.59305
G1 X132.506 Y168.539 E20.62791
G1 X132.481 Y131.87 E21.84753
G1 X132.606 Y130.407 E21.89636
G1 X133.067 Y129.059 E21.94375
G1 X133.779 Y127.589 E21.99807
G1 X134.223 Y126.917 E22.02486
G1 X135.128 Y125.852 E22.07135
G0 F6000 X135.4 Y126.146
G1 F1200 X136.579 Y125.055 E22.12477
G1 X138.253 Y124.226 E22.1869
G1 X139.466 Y123.773 E22.22997
G1 X140.576 Y123.608 E22.26729
G1 X147.372 Y123.578 E22.49333
G1 X148.63 Y123.718 E22.53543
G1 X149.996 Y124.195 E22.58355
G1 X151.117 Y123.773 E22.62339
G1 X152.226 Y123.608 E22.66069
G1 X159.024 Y123.578 E22.88679
G1 X160.264 Y123.717 E22.92829
G1 X162.186 Y124.391 E22.99603
G1 X163.875 Y125.469 E23.06268
G1 X165.189 Y126.783 E23.12448
G1 X166.004 Y128.106 E23.17617
G1 X166.547 Y129.288 E23.21943
G1 X166.942 Y130.512 E23.26221
G1 X167.046 Y131.509 E23.29555
G1 X167.08 Y161.225 E24.28391
G1 X166.945 Y161.784 E24.30303
G1 X167.08 Y162.488 E24.32687
G1 X167.046 Y168.477 E24.52607
G1 X166.941 Y169.509 E24.56057
G1 X166.52 Y170.779 E24.60508
G1 X166.13 Y171.66 E24.63712
G1 X165.543 Y172.647 E24.67531
G1 X164.888 Y173.488 E24.71077
G1 X164.229 Y174.155 E24.74196
G1 X162.795 Y175.241 E24.80178
G1 X161.601 Y175.817 E24.84588
G1 X160.484 Y176.227 E24.88545
G1 X159.372 Y176.392 E24.92284
G1 X152.578 Y176.422 E25.14881
G1 X151.324 Y176.282 E25.19078
G1 X149.973 Y175.809 E25.23839
G1 X148.834 Y176.227 E25.27874
G1 X147.722 Y176.392 E25.31613
G1 X140.926 Y176.422 E25.54217
G1 X139.686 Y176.283 E25.58367
G1 X137.764 Y175.609 E25.65142
G1 X136.075 Y174.531 E25.71806
G1 X134.754 Y173.21 E25.78019
G1 X134.059 Y172.105 E25.82361
G1 X133.468 Y170.877 E25.86894
G1 X133.012 Y169.497 E25.91728
G1 X132.904 Y168.496 E25.95077
G1 X132.88 Y131.904 E27.16782
G1 X133.001 Y130.49 E27.21502
G1 X133.446 Y129.188 E27.26079
G1 X134.113 Y127.81 E27.31171
G1 X134.557 Y127.138 E27.33849
G1 X135.4 Y126.146 E27.38179
G0 F6000 X135.672 Y126.44
G1 F1200 X136.81 Y125.387 E27.43336
G1 X138.393 Y124.601 E27.49214
G1 X139.566 Y124.163 E27.53379
G1 X140.635 Y124.004 E27.56974
G1 X147.328 Y123.976 E27.79235
G1 X148.541 Y124.111 E27.83294
G1 X150 Y124.621 E27.88435
G1 X151.215 Y124.163 E27.92753
G1 X152.285 Y124.004 E27.96351
G1 X158.98 Y123.976 E28.18619
G1 X160.179 Y124.11 E28.22632
G1 X162.009 Y124.752 E28.29082
G1 X163.621 Y125.781 E28.35443
G1 X164.872 Y127.032 E28.41327
G1 X165.663 Y128.316 E28.46343
G1 X166.166 Y129.411 E28.50351
G1 X166.548 Y130.596 E28.54492
G1 X166.648 Y131.551 E28.57686
G1 X166.68 Y161.177 E29.56222
G1 X166.536 Y161.774 E29.58265
G1 X166.68 Y162.525 E29.60808
G1 X166.648 Y168.437 E29.80472
G1 X166.548 Y169.423 E29.83768
G1 X166.14 Y170.653 E29.88078
G1 X165.786 Y171.456 E29.90997
G1 X165.227 Y172.401 E29.94649
G1 X164.572 Y173.242 E29.98195
G1 X163.945 Y173.873 E30.01153
G1 X162.586 Y174.898 E30.06815
G1 X161.463 Y175.441 E30.10964
G1 X160.384 Y175.837 E30.14786
G1 X159.313 Y175.996 E30.18388
G1 X152.622 Y176.024 E30.40642
G1 X151.413 Y175.889 E30.44688
G1 X149.97 Y175.384 E30.49773
G1 X148.734 Y175.837 E30.54151
G1 X147.663 Y175.996 E30.57753
G1 X140.97 Y176.024 E30.80014
G1 X139.771 Y175.89 E30.84027
G1 X137.941 Y175.248 E30.90477
G1 X136.329 Y174.219 E30.96838
G1 X135.069 Y172.959 E31.02764
G1 X134.398 Y171.892 E31.06957
G1 X133.848 Y170.751 E31.11169
G1 X133.405 Y169.412 E31.1586
G1 X133.302 Y168.453 E31.19068
G1 X133.279 Y131.938 E32.40518
G1 X133.396 Y130.573 E32.45074
G1 X133.825 Y129.317 E32.49489
G1 X134.447 Y128.031 E32.5424
G1 X134.891 Y127.359 E32.56919
G1 X135.672 Y126.44 E32.6093
G0 F6000 X135.944 Y126.734
G1 F1200 X137.042 Y125.718 E32.65906
G1 X138.533 Y124.976 E32.71445
G1 X139.666 Y124.553 E32.75468
G1 X140.694 Y124.4 E32.78924
G1 X147.284 Y124.374 E33.00843
G1 X148.452 Y124.504 E33.04752
G1 X150.023 Y125.053 E33.10287
G1 X150.183 Y124.976 E33.10877
G1 X151.316 Y124.553 E33.149
G1 X152.344 Y124.4 E33.18357
G1 X158.935 Y124.374 E33.40279
G1 X160.094 Y124.504 E33.44158
G1 X161.832 Y125.113 E33.50283
G1 X163.367 Y126.093 E33.5634
G1 X164.558 Y127.284 E33.61942
G1 X165.3 Y128.484 E33.66635
G1 X165.785 Y129.534 E33.70482
G1 X166.155 Y130.68 E33.74487
G1 X166.25 Y131.592 E33.77537
G1 X166.28 Y161.129 E34.75777
G1 X166.127 Y161.764 E34.7795
G1 X166.28 Y162.562 E34.80652
G1 X166.25 Y168.397 E35.0006
G1 X166.155 Y169.337 E35.03202
G1 X165.76 Y170.527 E35.07372
G1 X165.441 Y171.253 E35.1001
G1 X164.911 Y172.155 E35.13489
G1 X164.256 Y172.996 E35.17035
G1 X163.704 Y173.554 E35.19645
G1 X162.379 Y174.554 E35.25167
G1 X161.325 Y175.065 E35.29063
G1 X160.284 Y175.447 E35.32751
G1 X159.254 Y175.6 E35.36214
G1 X152.666 Y175.626 E35.58126
G1 X151.498 Y175.496 E35.62035
G1 X149.926 Y174.945 E35.67575
G1 X149.675 Y175.065 E35.685
G1 X148.634 Y175.447 E35.72189
G1 X147.604 Y175.6 E35.75652
G1 X141.015 Y175.626 E35.97567
G1 X139.856 Y175.496 E36.01446
G1 X138.118 Y174.887 E36.07572
G1 X136.583 Y173.907 E36.13629
G1 X135.384 Y172.708 E36.19268
G1 X134.737 Y171.679 E36.23311
G1 X134.228 Y170.625 E36.27204
G1 X133.798 Y169.327 E36.31752
G1 X133.7 Y168.41 E36.34819
G1 X133.678 Y131.972 E37.56013
G1 X133.791 Y130.656 E37.60406
G1 X134.204 Y129.446 E37.64658
G1 X134.781 Y128.252 E37.69069
G1 X135.225 Y127.58 E37.71748
G1 X135.944 Y126.734 E37.75441
G0 F6000 X136.216 Y127.028
G1 F1200 X137.273 Y126.05 E37.8023
G1 X138.673 Y125.351 E37.85435
G1 X139.766 Y124.943 E37.89315
G1 X140.753 Y124.796 E37.92634
G1 X147.24 Y124.772 E38.1421
G1 X148.363 Y124.897 E38.17968
G1 X150.048 Y125.486 E38.23905
G1 X150.323 Y125.351 E38.24924
G1 X151.416 Y124.943 E38.28804
G1 X152.403 Y124.796 E38.32123
G1 X158.89 Y124.772 E38.53699
G1 X160.005 Y124.897 E38.57431
G1 X161.658 Y125.476 E38.63257
G1 X163.113 Y126.405 E38.68998
G1 X164.242 Y127.534 E38.74309
G1 X164.937 Y128.653 E38.7869
G1 X165.404 Y129.657 E38.82373
G1 X165.761 Y130.764 E38.86241
G1 X165.852 Y131.634 E38.89151
G1 X165.88 Y161.081 E39.87092
G1 X165.718 Y161.754 E39.89394
G1 X165.88 Y162.599 E39.92256
G1 X165.852 Y168.357 E40.11407
G1 X165.762 Y169.251 E40.14396
G1 X165.38 Y170.401 E40.18426
G1 X165.075 Y171.091 E40.20935
G1 X164.595 Y171.909 E40.2409
G1 X163.94 Y172.75 E40.27635
G1 X163.463 Y173.235 E40.29898
G1 X162.171 Y174.21 E40.35282
G1 X161.187 Y174.689 E40.38921
G1 X160.184 Y175.057 E40.42475
G1 X159.195 Y175.204 E40.458
G1 X152.71 Y175.228 E40.6737
G1 X151.587 Y175.103 E40.71128
G1 X149.902 Y174.513 E40.77066
G1 X149.537 Y174.689 E40.78414
G1 X148.534 Y175.057 E40.81967
G1 X147.545 Y175.204 E40.85293
G1 X141.06 Y175.228 E41.06862
G1 X139.945 Y175.103 E41.10594
G1 X138.292 Y174.524 E41.16419
G1 X136.837 Y173.595 E41.22161
G1 X135.699 Y172.457 E41.27514
G1 X135.076 Y171.466 E41.31407
G1 X134.608 Y170.499 E41.3498
G1 X134.191 Y169.241 E41.39388
G1 X134.098 Y168.368 E41.42308
G1 X134.077 Y132.006 E42.63249
G1 X134.186 Y130.737 E42.67485
G1 X134.565 Y129.619 E42.71411
G1 X135.115 Y128.473 E42.75639
G1 X135.559 Y127.801 E42.78318
G1 X136.216 Y127.028 E42.81692
G0 F6000 X136.488 Y127.322
G1 F1200 X137.504 Y126.382 E42.86296
G1 X138.813 Y125.726 E42.91166
G1 X139.866 Y125.333 E42.94904
G1 X140.812 Y125.192 E42.98085
G1 X147.196 Y125.17 E43.19319
G1 X148.274 Y125.29 E43.22926
G1 X149.783 Y125.818 E43.28243
G1 X150.01 Y125.951 E43.29119
G1 X150.463 Y125.726 E43.30801
G1 X151.516 Y125.333 E43.34539
G1 X152.462 Y125.192 E43.3772
G1 X158.846 Y125.17 E43.58954
G1 X159.92 Y125.29 E43.62548
G1 X161.481 Y125.837 E43.68049
G1 X162.859 Y126.717 E43.73488
G1 X163.928 Y127.786 E43.78516
G1 X164.575 Y128.823 E43.82581
G1 X165.023 Y129.78 E43.86096
G1 X165.368 Y130.848 E43.89829
G1 X165.454 Y131.675 E43.92594
G1 X165.48 Y161.033 E44.90239
G1 X165.304 Y161.765 E44.92743
G1 X165.338 Y161.878 E44.93136
G1 X165.48 Y162.636 E44.95701
G1 X165.454 Y168.317 E45.14596
G1 X165.368 Y169.167 E45.17437
G1 X165.014 Y170.239 E45.21192
G1 X164.709 Y170.929 E45.23701
G1 X164.279 Y171.663 E45.26531
G1 X163.624 Y172.504 E45.30076
G1 X163.179 Y172.953 E45.32179
G1 X161.96 Y173.868 E45.37248
G1 X161.049 Y174.313 E45.40621
G1 X160.084 Y174.667 E45.44039
G1 X159.136 Y174.808 E45.47227
G1 X152.754 Y174.83 E45.68454
G1 X151.676 Y174.71 E45.72061
G1 X150.156 Y174.178 E45.77418
G1 X149.938 Y174.051 E45.78257
G1 X149.399 Y174.313 E45.8025
G1 X148.434 Y174.667 E45.83669
G1 X147.486 Y174.808 E45.86857
G1 X141.104 Y174.83 E46.08083
G1 X140.03 Y174.71 E46.11678
G1 X138.469 Y174.163 E46.17179
G1 X137.091 Y173.283 E46.22617
G1 X136.014 Y172.206 E46.27683
G1 X135.415 Y171.253 E46.31427
G1 X134.988 Y170.373 E46.3468
G1 X134.584 Y169.155 E46.38948
G1 X134.496 Y168.326 E46.41721
G1 X134.476 Y132.04 E47.62409
G1 X134.581 Y130.817 E47.66491
G1 X134.926 Y129.791 E47.70092
G1 X135.449 Y128.694 E47.74134
G1 X135.893 Y128.022 E47.76813
G1 X136.488 Y127.322 E47.79868
G0 F6000 X136.76 Y127.616
G1 F1200 X137.736 Y126.713 E47.84291
G1 X138.953 Y126.101 E47.88821
G1 X139.966 Y125.723 E47.92418
G1 X140.871 Y125.588 E47.95461
G1 X147.152 Y125.568 E48.16352
G1 X148.185 Y125.683 E48.19809
G1 X149.651 Y126.196 E48.24975
G1 X149.987 Y126.41 E48.263
G1 X150.603 Y126.101 E48.28592
G1 X151.616 Y125.723 E48.32188
G1 X152.521 Y125.588 E48.35231
G1 X158.802 Y125.568 E48.56122
