;FLAVOR:Marlin
;TIME:10359
;Filament used: 12.8745m
;Layer height: 0.4
;MINX:51.836
;MINY:104.335
;MINZ:0.24
;MAXX:248.146
;MAXY:195.665
;MAXZ:6.79
;Generated with Cura_SteamEngine master
M140 S50
M105
M190 S50
M104 S210
M105
M109 S210
M82 ;absolute extrusion mode
M201 X500.00 Y500.00 Z100.00 E5000.00 ;Setup machine max acceleration
M203 X500.00 Y500.00 Z10.00 E50.00 ;Setup machine max feedrate
M204 P500.00 R1000.00 T500.00 ;Setup Print/Retract/Travel acceleration
M205 X8.00 Y8.00 Z0.40 E5.00 ;Setup Jerk
M220 S100 ;Reset Feedrate
M221 S100 ;Reset Flowrate

M280 P0 S160 ;reset bltouch
G28 ;Home
G29 A ; enable UBL
G92 E0 ;Reset Extruder
G1 Z2.0 F3000 ;Move Z Axis up
G1 X10.1 Y20 Z0.28 F5000.0 ;Move to start position
G1 X10.1 Y200.0 Z0.28 F1500.0 E15 ;Draw the first line
G1 X10.4 Y200.0 Z0.28 F5000.0 ;Move to side a little
G1 X10.4 Y20 Z0.28 F1500.0 E30 ;Draw the second line
G92 E0 ;Reset Extruder
G1 Z2.0 F3000 ;Move Z Axis up
G92 E0
G92 E0
G1 F2700 E-5
;LAYER_COUNT:13
;LAYER:-5
M107
G0 F9000 X59.949 Y107.508 Z0.24
;TYPE:SUPPORT-INTERFACE
G1 F2700 E0
G1 F1125 X60.743 Y107.062 E0.0727
G1 X60.893 Y106.984 E0.08619
G1 X61.708 Y106.601 E0.15807
G1 X61.851 Y106.541 E0.17045
G1 X62.71 Y106.212 E0.24388
G1 X62.86 Y106.16 E0.25655
G1 X63.71 Y105.905 E0.32739
G1 X63.883 Y105.858 E0.3417
G1 X64.778 Y105.658 E0.4149
G1 X64.908 Y105.635 E0.42544
G1 X65.813 Y105.501 E0.49847
G1 X65.982 Y105.483 E0.51204
G1 X66.871 Y105.417 E0.5832
G1 X67.055 Y105.408 E0.5979
G1 X67.56 Y105.4 E0.63822
G1 X77.503 Y105.401 E1.43191
G1 X78.504 Y105.437 E1.51187
G1 X78.627 Y105.446 E1.52171
G1 X79.544 Y105.548 E1.59536
G1 X79.719 Y105.573 E1.60947
G1 X80.608 Y105.737 E1.68163
G1 X80.731 Y105.765 E1.6917
G1 X81.625 Y105.999 E1.76547
G1 X81.788 Y106.048 E1.77906
G1 X82.63 Y106.334 E1.85004
G1 X82.796 Y106.398 E1.86424
G1 X83.599 Y106.739 E1.93388
G1 X83.788 Y106.827 E1.95052
G1 X84.974 Y107.437 E2.05698
G1 X85.153 Y107.508 E2.07236
G1 X85.801 Y107.723 E2.12685
G1 X86.471 Y107.854 E2.18135
G1 X87.163 Y107.9 E2.23671
G1 X107.503 Y107.901 E3.86034
G1 X108.504 Y107.937 E3.94029
G1 X108.627 Y107.946 E3.95014
G1 X109.544 Y108.048 E4.02379
G1 X109.719 Y108.073 E4.0379
G1 X110.608 Y108.237 E4.11006
G1 X110.731 Y108.265 E4.12013
G1 X111.625 Y108.499 E4.1939
G1 X111.788 Y108.548 E4.20748
G1 X112.63 Y108.834 E4.27847
G1 X112.796 Y108.898 E4.29267
G1 X113.599 Y109.239 E4.36231
G1 X113.788 Y109.327 E4.37895
G1 X114.582 Y109.735 E4.45021
G1 X114.699 Y109.802 E4.46097
G1 X115.478 Y110.276 E4.53376
G1 X115.629 Y110.376 E4.54822
G1 X116.343 Y110.887 E4.6183
G1 X116.491 Y111 E4.63317
G1 X117.182 Y111.576 E4.70498
G1 X117.295 Y111.677 E4.71708
G1 X117.944 Y112.302 E4.789
G1 X118.064 Y112.427 E4.80283
G1 X118.667 Y113.098 E4.87484
G1 X118.763 Y113.214 E4.88686
G1 X119.313 Y113.926 E4.95868
G1 X119.426 Y114.085 E4.97425
G1 X119.916 Y114.823 E5.04496
G1 X120.105 Y115.151 E5.07518
G1 X120.469 Y115.712 E5.12856
G1 X120.908 Y116.235 E5.18307
G1 X121.411 Y116.698 E5.23764
G1 X121.968 Y117.093 E5.29215
G1 X122.57 Y117.415 E5.34664
G1 X123.208 Y117.658 E5.40114
G1 X123.876 Y117.82 E5.45601
G1 X124.793 Y117.9 E5.52949
G1 X132.503 Y117.901 E6.14493
G1 X133.504 Y117.937 E6.22489
G1 X133.627 Y117.946 E6.23473
G1 X134.544 Y118.048 E6.30838
G1 X134.719 Y118.073 E6.32249
G1 X135.608 Y118.237 E6.39466
G1 X135.731 Y118.265 E6.40472
G1 X136.625 Y118.499 E6.47849
G1 X136.788 Y118.548 E6.49208
G1 X137.63 Y118.834 E6.56306
G1 X137.796 Y118.898 E6.57726
G1 X138.599 Y119.239 E6.6469
G1 X138.788 Y119.327 E6.66354
G1 X139.582 Y119.735 E6.7348
G1 X139.699 Y119.802 E6.74557
G1 X140.478 Y120.276 E6.81836
G1 X140.629 Y120.376 E6.83281
G1 X141.343 Y120.887 E6.9029
G1 X141.491 Y121 E6.91776
G1 X142.182 Y121.576 E6.98957
G1 X142.295 Y121.677 E7.00167
G1 X142.944 Y122.302 E7.07359
G1 X143.064 Y122.427 E7.08743
G1 X143.667 Y123.098 E7.15944
G1 X143.763 Y123.214 E7.17146
G1 X144.313 Y123.926 E7.24327
G1 X144.426 Y124.085 E7.25884
G1 X144.916 Y124.823 E7.32956
G1 X145.105 Y125.151 E7.35978
G1 X145.469 Y125.712 E7.41316
G1 X145.908 Y126.235 E7.46766
G1 X146.411 Y126.698 E7.52224
G1 X146.968 Y127.093 E7.57674
G1 X147.57 Y127.415 E7.63124
G1 X148.208 Y127.658 E7.68574
G1 X148.876 Y127.82 E7.74061
G1 X149.793 Y127.9 E7.81408
G1 X157.503 Y127.901 E8.42953
G1 X158.504 Y127.937 E8.50948
G1 X158.627 Y127.946 E8.51933
G1 X159.544 Y128.048 E8.59298
G1 X159.719 Y128.073 E8.60709
G1 X160.608 Y128.237 E8.67925
G1 X160.731 Y128.265 E8.68932
G1 X161.625 Y128.499 E8.76309
G1 X161.788 Y128.548 E8.77667
G1 X162.63 Y128.834 E8.84766
G1 X162.796 Y128.898 E8.86186
G1 X163.599 Y129.239 E8.9315
G1 X163.788 Y129.327 E8.94814
G1 X164.582 Y129.735 E9.0194
G1 X164.699 Y129.802 E9.03016
G1 X165.478 Y130.276 E9.10295
G1 X165.629 Y130.376 E9.11741
G1 X166.343 Y130.887 E9.1875
G1 X166.491 Y131 E9.20236
G1 X167.182 Y131.576 E9.27417
G1 X167.295 Y131.677 E9.28627
G1 X167.944 Y132.302 E9.35819
G1 X168.064 Y132.427 E9.37202
G1 X168.667 Y133.098 E9.44403
G1 X168.763 Y133.214 E9.45605
G1 X169.313 Y133.926 E9.52787
G1 X169.426 Y134.085 E9.54344
G1 X169.916 Y134.823 E9.61415
G1 X170.105 Y135.151 E9.64437
G1 X170.469 Y135.712 E9.69775
G1 X170.908 Y136.235 E9.75226
G1 X171.411 Y136.698 E9.80683
G1 X171.968 Y137.093 E9.86134
G1 X172.57 Y137.415 E9.91584
G1 X173.208 Y137.658 E9.97033
G1 X173.876 Y137.82 E10.0252
G1 X174.793 Y137.9 E10.09868
G1 X182.503 Y137.901 E10.71412
G1 X183.504 Y137.937 E10.79408
G1 X183.627 Y137.946 E10.80392
G1 X184.544 Y138.048 E10.87757
G1 X184.719 Y138.073 E10.89168
G1 X185.608 Y138.237 E10.96385
G1 X185.731 Y138.265 E10.97392
G1 X186.625 Y138.499 E11.04768
G1 X186.788 Y138.548 E11.06127
G1 X187.63 Y138.834 E11.13225
G1 X187.796 Y138.898 E11.14645
G1 X188.599 Y139.239 E11.21609
G1 X188.788 Y139.327 E11.23274
G1 X189.582 Y139.735 E11.30399
G1 X189.699 Y139.802 E11.31476
G1 X190.478 Y140.276 E11.38755
G1 X190.629 Y140.376 E11.402
G1 X191.343 Y140.887 E11.47209
G1 X191.491 Y141 E11.48695
G1 X192.182 Y141.576 E11.55876
G1 X192.295 Y141.677 E11.57086
G1 X192.944 Y142.302 E11.64278
G1 X193.064 Y142.427 E11.65662
G1 X193.667 Y143.098 E11.72863
G1 X193.763 Y143.214 E11.74065
G1 X194.313 Y143.926 E11.81246
G1 X194.426 Y144.085 E11.82804
G1 X194.916 Y144.823 E11.89875
G1 X195.105 Y145.151 E11.92897
G1 X195.469 Y145.712 E11.98235
G1 X195.908 Y146.235 E12.03685
G1 X196.411 Y146.698 E12.09143
G1 X196.968 Y147.093 E12.14593
G1 X197.57 Y147.415 E12.20043
G1 X198.208 Y147.658 E12.25493
G1 X198.876 Y147.82 E12.3098
G1 X199.793 Y147.9 E12.38327
G1 X207.503 Y147.901 E12.99872
G1 X208.504 Y147.937 E13.07867
G1 X208.627 Y147.946 E13.08852
G1 X209.544 Y148.048 E13.16217
G1 X209.719 Y148.073 E13.17628
G1 X210.608 Y148.237 E13.24844
G1 X210.731 Y148.265 E13.25851
G1 X211.625 Y148.499 E13.33228
G1 X211.788 Y148.548 E13.34586
G1 X212.63 Y148.834 E13.41685
G1 X212.796 Y148.898 E13.43105
G1 X213.599 Y149.239 E13.50069
G1 X213.788 Y149.327 E13.51733
G1 X214.582 Y149.735 E13.58859
G1 X214.699 Y149.802 E13.59935
G1 X215.478 Y150.276 E13.67214
G1 X215.629 Y150.376 E13.6866
G1 X216.343 Y150.887 E13.75669
G1 X216.491 Y151 E13.77155
G1 X217.182 Y151.576 E13.84336
G1 X217.295 Y151.677 E13.85546
G1 X217.944 Y152.302 E13.92738
G1 X218.064 Y152.427 E13.94121
G1 X218.667 Y153.098 E14.01322
G1 X218.763 Y153.214 E14.02524
G1 X219.313 Y153.926 E14.09706
G1 X219.426 Y154.085 E14.11263
G1 X219.916 Y154.823 E14.18334
G1 X220.105 Y155.151 E14.21356
G1 X220.469 Y155.712 E14.26694
G1 X220.908 Y156.235 E14.32145
G1 X221.411 Y156.698 E14.37602
G1 X221.968 Y157.093 E14.43053
G1 X222.57 Y157.415 E14.48503
G1 X223.208 Y157.658 E14.53952
G1 X223.876 Y157.82 E14.59439
G1 X224.793 Y157.9 E14.66787
G1 X232.503 Y157.901 E15.28331
G1 X233.504 Y157.937 E15.36327
G1 X233.627 Y157.946 E15.37311
G1 X234.544 Y158.048 E15.44676
G1 X234.719 Y158.073 E15.46088
G1 X235.608 Y158.237 E15.53304
G1 X235.731 Y158.265 E15.54311
G1 X236.625 Y158.499 E15.61687
G1 X236.788 Y158.548 E15.63046
G1 X237.63 Y158.834 E15.70144
G1 X237.796 Y158.898 E15.71564
G1 X238.599 Y159.239 E15.78528
G1 X238.788 Y159.327 E15.80193
G1 X239.582 Y159.735 E15.87318
G1 X239.699 Y159.802 E15.88395
G1 X240.478 Y160.276 E15.95674
G1 X240.629 Y160.376 E15.97119
G1 X241.343 Y160.887 E16.04128
G1 X241.491 Y161 E16.05614
G1 X242.182 Y161.576 E16.12795
G1 X242.295 Y161.677 E16.14005
G1 X242.944 Y162.302 E16.21197
G1 X243.064 Y162.427 E16.22581
G1 X243.667 Y163.098 E16.29782
G1 X243.763 Y163.214 E16.30984
G1 X244.313 Y163.926 E16.38166
G1 X244.426 Y164.085 E16.39723
G1 X244.916 Y164.823 E16.46794
G1 X244.992 Y164.949 E16.47969
G1 X245.438 Y165.743 E16.55238
G1 X245.516 Y165.893 E16.56588
G1 X245.899 Y166.708 E16.63776
G1 X245.959 Y166.851 E16.65014
G1 X246.288 Y167.71 E16.72356
G1 X246.34 Y167.86 E16.73624
G1 X246.595 Y168.71 E16.80707
G1 X246.642 Y168.883 E16.82138
G1 X246.84 Y169.769 E16.89385
G1 X246.865 Y169.908 E16.90513
G1 X246.998 Y170.807 E16.97767
G1 X247.016 Y170.969 E16.99068
G1 X247.083 Y171.871 E17.06288
G1 X247.092 Y172.055 E17.07759
G1 X247.1 Y172.556 E17.11758
G1 X247.1 Y177.486 E17.51112
G1 X247.064 Y178.492 E17.59147
G1 X247.054 Y178.627 E17.60228
G1 X246.952 Y179.544 E17.67593
G1 X246.927 Y179.719 E17.69004
G1 X246.765 Y180.597 E17.76131
G1 X246.735 Y180.731 E17.77227
G1 X246.504 Y181.616 E17.84528
G1 X246.452 Y181.788 E17.85962
G1 X246.166 Y182.63 E17.93061
G1 X246.102 Y182.796 E17.94481
G1 X245.761 Y183.599 E18.01445
G1 X245.68 Y183.774 E18.02984
G1 X245.265 Y184.582 E18.10235
G1 X245.198 Y184.699 E18.11311
G1 X244.724 Y185.478 E18.1859
G1 X244.624 Y185.629 E18.20036
G1 X244.113 Y186.343 E18.27045
G1 X244 Y186.491 E18.28531
G1 X243.424 Y187.182 E18.35712
G1 X243.323 Y187.295 E18.36922
G1 X242.698 Y187.944 E18.44114
G1 X242.573 Y188.064 E18.45497
G1 X241.903 Y188.666 E18.52687
G1 X241.786 Y188.763 E18.539
G1 X241.074 Y189.313 E18.61082
G1 X240.915 Y189.426 E18.62639
G1 X240.177 Y189.916 E18.6971
G1 X240.051 Y189.992 E18.70885
G1 X239.257 Y190.438 E18.78154
G1 X239.106 Y190.516 E18.79511
G1 X238.292 Y190.899 E18.86692
G1 X238.149 Y190.959 E18.8793
G1 X237.29 Y191.288 E18.95273
G1 X237.14 Y191.34 E18.9654
G1 X236.29 Y191.595 E19.03624
G1 X236.117 Y191.642 E19.05055
G1 X235.222 Y191.842 E19.12375
G1 X235.092 Y191.865 E19.13429
G1 X234.187 Y191.999 E19.20732
G1 X234.019 Y192.017 E19.22081
G1 X233.129 Y192.083 E19.29205
G1 X232.945 Y192.092 E19.30675
G1 X232.44 Y192.1 E19.34707
G1 X87.149 Y192.1 E30.94482
G1 X86.481 Y192.142 E30.99825
G1 X85.81 Y192.271 E31.05279
G1 X85.161 Y192.484 E31.10732
G1 X84.531 Y192.785 E31.16305
G1 X84.257 Y192.938 E31.1881
G1 X84.106 Y193.016 E31.20167
G1 X83.292 Y193.399 E31.27348
G1 X83.149 Y193.459 E31.28586
G1 X82.29 Y193.788 E31.35929
G1 X82.14 Y193.84 E31.37196
G1 X81.29 Y194.095 E31.4428
G1 X81.117 Y194.142 E31.45711
G1 X80.222 Y194.342 E31.53031
G1 X80.092 Y194.365 E31.54085
G1 X79.187 Y194.499 E31.61388
G1 X79.019 Y194.517 E31.62737
G1 X78.129 Y194.583 E31.6986
G1 X77.945 Y194.592 E31.71331
G1 X77.44 Y194.6 E31.75363
G1 X67.497 Y194.599 E32.54732
G1 X66.496 Y194.563 E32.62728
G1 X66.373 Y194.554 E32.63712
G1 X65.456 Y194.452 E32.71077
G1 X65.281 Y194.427 E32.72488
G1 X64.392 Y194.263 E32.79704
G1 X64.269 Y194.235 E32.80711
G1 X63.375 Y194.001 E32.88088
G1 X63.212 Y193.952 E32.89447
G1 X62.37 Y193.666 E32.96545
G1 X62.204 Y193.602 E32.97965
G1 X61.401 Y193.261 E33.04929
G1 X61.212 Y193.173 E33.06593
G1 X60.418 Y192.765 E33.13719
G1 X60.301 Y192.698 E33.14795
G1 X59.522 Y192.224 E33.22074
G1 X59.371 Y192.124 E33.2352
G1 X58.657 Y191.613 E33.30529
G1 X58.509 Y191.5 E33.32015
G1 X57.818 Y190.924 E33.39196
G1 X57.705 Y190.823 E33.40406
G1 X57.056 Y190.198 E33.47598
G1 X56.936 Y190.073 E33.48981
G1 X56.333 Y189.402 E33.56182
G1 X56.236 Y189.284 E33.57402
G1 X55.678 Y188.562 E33.64686
G1 X55.574 Y188.415 E33.66123
G1 X55.081 Y187.672 E33.73241
G1 X55.008 Y187.551 E33.74369
G1 X54.556 Y186.746 E33.81739
G1 X54.484 Y186.607 E33.82988
G1 X54.101 Y185.791 E33.90184
G1 X54.036 Y185.637 E33.91518
G1 X53.712 Y184.79 E33.98757
G1 X53.655 Y184.625 E34.0015
G1 X53.404 Y183.788 E34.07125
G1 X53.358 Y183.617 E34.08539
G1 X53.157 Y182.716 E34.15908
G1 X53.135 Y182.592 E34.16913
G1 X53 Y181.678 E34.24288
G1 X52.983 Y181.518 E34.25573
G1 X52.917 Y180.626 E34.32713
G1 X52.908 Y180.445 E34.34159
G1 X52.9 Y179.944 E34.38159
G1 X52.901 Y119.997 E39.16682
G1 X52.936 Y119.008 E39.24581
G1 X52.946 Y118.873 E39.25662
G1 X53.047 Y117.96 E39.32994
G1 X53.073 Y117.782 E39.3443
G1 X53.235 Y116.903 E39.41565
G1 X53.265 Y116.769 E39.42661
G1 X53.496 Y115.884 E39.49962
G1 X53.548 Y115.712 E39.51397
G1 X53.834 Y114.87 E39.58495
G1 X53.898 Y114.704 E39.59915
G1 X54.239 Y113.901 E39.66879
G1 X54.32 Y113.726 E39.68418
G1 X54.735 Y112.918 E39.75669
G1 X54.802 Y112.801 E39.76745
G1 X55.276 Y112.022 E39.84024
G1 X55.376 Y111.871 E39.8547
G1 X55.887 Y111.157 E39.92479
G1 X56 Y111.009 E39.93965
G1 X56.576 Y110.318 E40.01146
G1 X56.677 Y110.205 E40.02356
G1 X57.302 Y109.556 E40.09548
G1 X57.427 Y109.436 E40.10931
G1 X58.098 Y108.833 E40.18133
G1 X58.214 Y108.737 E40.19334
G1 X58.929 Y108.185 E40.26545
G1 X59.085 Y108.074 E40.28073
G1 X59.823 Y107.584 E40.35145
G1 X59.949 Y107.508 E40.36319
G0 F9000 X59.2 Y107.997
G1 F1125 X59.2 Y192.001 E47.06875
G0 F9000 X60.8 Y192.961
G1 F1125 X60.8 Y107.032 E53.92798
G0 F9000 X62.4 Y106.33
G1 F1125 X62.4 Y193.676 E60.90031
G0 F9000 X64 Y194.164
G1 F1125 X64 Y105.831 E67.95144
G0 F9000 X65.6 Y105.532
G1 F1125 X65.6 Y194.468 E75.05069
G0 F9000 X67.2 Y194.588
G1 F1125 X67.2 Y105.405 E82.16966
G0 F9000 X68.8 Y105.401
G1 F1125 X68.8 Y194.599 E89.28983
G0 F9000 X70.4 Y194.599
G1 F1125 X70.4 Y105.401 E96.41
G0 F9000 X72 Y105.401
G1 F1125 X72 Y194.599 E103.53017
G0 F9000 X73.6 Y194.599
G1 F1125 X73.6 Y105.401 E110.65034
G0 F9000 X75.2 Y105.401
G1 F1125 X75.2 Y194.599 E117.77051
G0 F9000 X76.8 Y194.599
G1 F1125 X76.8 Y105.401 E124.89068
G0 F9000 X78.4 Y105.434
G1 F1125 X78.4 Y194.563 E132.00535
G0 F9000 X80 Y194.379
G1 F1125 X80 Y105.625 E139.09007
G0 F9000 X81.6 Y105.993
G1 F1125 X81.6 Y194.002 E146.11533
G0 F9000 X83.2 Y193.438
G1 F1125 X83.2 Y106.57 E153.04951
G0 F9000 X84.8 Y107.348
G1 F1125 X84.8 Y192.657 E159.85925
G0 F9000 X86.4 Y192.158
G1 F1125 X86.4 Y107.841 E166.58979
G0 F9000 X88 Y107.901
G1 F1125 X88 Y192.1 E173.31092
G0 F9000 X89.6 Y192.1
G1 F1125 X89.6 Y107.901 E180.03205
G0 F9000 X91.2 Y107.901
G1 F1125 X91.2 Y192.1 E186.75318
G0 F9000 X92.8 Y192.1
G1 F1125 X92.8 Y107.901 E193.47431
G0 F9000 X94.4 Y107.901
G1 F1125 X94.4 Y192.1 E200.19544
G0 F9000 X96 Y192.1
G1 F1125 X96 Y107.901 E206.91656
G0 F9000 X97.6 Y107.901
G1 F1125 X97.6 Y192.1 E213.63769
G0 F9000 X99.2 Y192.1
G1 F1125 X99.2 Y107.901 E220.35882
G0 F9000 X100.8 Y107.901
G1 F1125 X100.8 Y192.1 E227.07995
G0 F9000 X102.4 Y192.1
G1 F1125 X102.4 Y107.901 E233.80108
G0 F9000 X104 Y107.901
G1 F1125 X104 Y192.1 E240.5222
G0 F9000 X105.6 Y192.1
G1 F1125 X105.6 Y107.901 E247.24333
G0 F9000 X107.2 Y107.901
G1 F1125 X107.2 Y192.1 E253.96446
G0 F9000 X108.8 Y192.1
G1 F1125 X108.8 Y107.966 E260.6804
G0 F9000 X110.4 Y108.199
G1 F1125 X110.4 Y192.1 E267.37774
G0 F9000 X112 Y192.1
G1 F1125 X112 Y108.621 E274.0414
G0 F9000 X113.6 Y109.24
G1 F1125 X113.6 Y192.1 E280.65564
G0 F9000 X115.2 Y192.1
G1 F1125 X115.2 Y110.107 E287.20068
G0 F9000 X116.8 Y111.258
G1 F1125 X116.8 Y192.1 E293.65383
G0 F9000 X118.4 Y192.1
G1 F1125 X118.4 Y112.801 E299.98382
G0 F9000 X120 Y114.969
G1 F1125 X120 Y192.1 E306.14075
G0 F9000 X121.6 Y192.1
G1 F1125 X121.6 Y116.833 E312.14889
G0 F9000 X123.2 Y117.655
G1 F1125 X123.2 Y192.1 E318.09141
G0 F9000 X124.8 Y192.1
G1 F1125 X124.8 Y117.901 E324.0143
G0 F9000 X126.4 Y117.901
G1 F1125 X126.4 Y192.1 E329.93718
G0 F9000 X128 Y192.1
G1 F1125 X128 Y117.901 E335.86007
G0 F9000 X129.6 Y117.901
G1 F1125 X129.6 Y192.1 E341.78295
G0 F9000 X131.2 Y192.1
G1 F1125 X131.2 Y117.901 E347.70584
G0 F9000 X132.8 Y117.912
G1 F1125 X132.8 Y192.1 E353.62784
G0 F9000 X134.4 Y192.1
G1 F1125 X134.4 Y118.032 E359.54027
G0 F9000 X136 Y118.336
G1 F1125 X136 Y192.1 E365.42843
G0 F9000 X137.6 Y192.1
G1 F1125 X137.6 Y118.824 E371.27764
G0 F9000 X139.2 Y119.539
G1 F1125 X139.2 Y192.1 E377.06977
G0 F9000 X140.8 Y192.1
